components/Common/Svg/svgs/androidAppDevelopment.svg

<svg
  width="90"
  height="90"
  viewBox="0 0 90 90"
  fill="none"
  xmlns="http://www.w3.org/2000/svg"
>
  <circle
    opacity="0.5"
    cx="45"
    cy="45"
    r="45"
    fill="#FFE603"
  ></circle>
  <path
    d="M52.5 49.3751C52.5 49.7459 52.39 50.1084 52.184 50.4168C51.978 50.7251 51.6851 50.9654 51.3425 51.1074C50.9999 51.2493 50.6229 51.2864 50.2592 51.2141C49.8955 51.1417 49.5614 50.9631 49.2992 50.7009C49.037 50.4387 48.8584 50.1046 48.786 49.7409C48.7137 49.3772 48.7508 49.0002 48.8927 48.6576C49.0346 48.3149 49.275 48.0221 49.5833 47.8161C49.8917 47.6101 50.2542 47.5001 50.625 47.5001C51.1223 47.5001 51.5992 47.6976 51.9508 48.0493C52.3025 48.4009 52.5 48.8778 52.5 49.3751ZM39.375 47.5001C39.0042 47.5001 38.6417 47.6101 38.3333 47.8161C38.025 48.0221 37.7846 48.3149 37.6427 48.6576C37.5008 49.0002 37.4637 49.3772 37.536 49.7409C37.6084 50.1046 37.787 50.4387 38.0492 50.7009C38.3114 50.9631 38.6455 51.1417 39.0092 51.2141C39.3729 51.2864 39.7499 51.2493 40.0925 51.1074C40.4352 50.9654 40.728 50.7251 40.934 50.4168C41.14 50.1084 41.25 49.7459 41.25 49.3751C41.25 48.8778 41.0525 48.4009 40.7008 48.0493C40.3492 47.6976 39.8723 47.5001 39.375 47.5001ZM62.5 51.2501V55.0001C62.4993 55.6629 62.2356 56.2983 61.767 56.767C61.2983 57.2357 60.6628 57.4993 60 57.5001H30C29.3372 57.4993 28.7017 57.2357 28.2331 56.767C27.7644 56.2983 27.5008 55.6629 27.5 55.0001V51.4265C27.4978 49.0167 27.9872 46.6318 28.9384 44.4177C29.8895 42.2036 31.2824 40.2068 33.0317 38.5495L29.1161 34.6338C28.884 34.3989 28.7544 34.0817 28.7554 33.7515C28.7564 33.4213 28.888 33.1049 29.1215 32.8714C29.355 32.638 29.6714 32.5064 30.0016 32.5054C30.3318 32.5044 30.649 32.6341 30.8839 32.8662L34.9716 36.9538C37.9065 34.8745 41.4134 33.7553 45.0103 33.75C48.6071 33.7446 52.1173 34.8534 55.0584 36.924L59.1163 32.8662C59.3512 32.6341 59.6684 32.5044 59.9986 32.5055C60.3288 32.5065 60.6452 32.6381 60.8786 32.8716C61.1121 33.1051 61.2437 33.4215 61.2447 33.7517C61.2457 34.0819 61.116 34.3991 60.8839 34.634L57.0027 38.5152C57.1206 38.6266 57.2373 38.7396 57.3528 38.8541C58.9895 40.4761 60.2874 42.4072 61.1711 44.5353C62.0547 46.6634 62.5065 48.9459 62.5 51.2501ZM60 51.2501C60.0055 49.275 59.6183 47.3186 58.8609 45.4946C58.1035 43.6705 56.991 42.0153 55.5881 40.6251C55.2104 40.2489 54.8131 39.8927 54.3981 39.5581C54.3903 39.5518 54.3825 39.5459 54.3747 39.5393C51.7188 37.4016 48.4096 36.2405 45.0003 36.2501H44.9469C36.7052 36.2787 30 43.0868 30 51.4266V55.0018L60 55.0002V51.2501Z"
    fill="black"
  ></path>
</svg>

<svg width="90" height="90" viewBox="0 0 90 90" fill="none" xmlns="http://www.w3.org/2000/svg"><circle opacity=".5" cx="45" cy="45" r="45" fill="#FFE603"/><path d="M52.5 49.375a1.875 1.875 0 1 1-3.751 0 1.875 1.875 0 0 1 3.751 0ZM39.375 47.5a1.875 1.875 0 1 0 0 3.751 1.875 1.875 0 0 0 0-3.75ZM62.5 51.25V55a2.503 2.503 0 0 1-2.5 2.5H30a2.503 2.503 0 0 1-2.5-2.5v-3.574a17.715 17.715 0 0 1 5.532-12.877l-3.916-3.915a1.25 1.25 0 0 1 1.768-1.768l4.088 4.088a17.41 17.41 0 0 1 20.086-.03l4.058-4.058a1.25 1.25 0 0 1 1.768 1.768l-3.881 3.881A17.385 17.385 0 0 1 62.5 51.25Zm-2.5 0a14.9 14.9 0 0 0-4.412-10.625 15.25 15.25 0 0 0-1.19-1.067l-.023-.019A14.884 14.884 0 0 0 45 36.25h-.053C36.705 36.28 30 43.087 30 51.427v3.575L60 55v-3.75Z" fill="#000"/></svg>
